X: 38626
T: Stool Of Repentance, The
R: jig
M: 6/8
K: Amajor
(3e/f/g/|:a2e c2e|a>gf e2c|a>ff f2e|fag f2e|
a2e c2e|a>gf e2c|d2e f2e|1 fac B2 (3e/f/g/:|2 fac B2A||
|:c>AA eAA|c>AA edc|d>BB fBB|d>BB fed|
c>AA eAA|c>AA edc|d2e f2e|1 fac B2a:|2 fac B2 (3e/f/g/||

